svgs/sharp-regular/square-down-right.svg

<svg xmlns="http://www.w3.org/2000/svg" viewBox="0 0 448 512"><!--! Font Awesome Pro 6.6.0 by @fontawesome - https://fontawesome.com License - https://fontawesome.com/license (Commercial License) Copyright 2024 Fonticons, Inc. --><path d="M400 432l0-352L48 80l0 352 352 0zm48 48l-48 0L48 480 0 480l0-48L0 80 0 32l48 0 352 0 48 0 0 48 0 352 0 48zM320 192l0 160-160 0-24-24 52-52-76-76 56-56 76 76 52-52 24 24z"/></svg>

<svg xmlns="http://www.w3.org/2000/svg" viewBox="0 0 448 512"><!--! Font Awesome Pro 6.4.2 by @fontawesome - https://fontawesome.com License - https://fontawesome.com/license (Commercial License) Copyright 2023 Fonticons, Inc. --><path d="M400 432V80H48V432H400zm48 48H400 48 0V432 80 32H48 400h48V80 432v48zM320 192V352H160l-24-24 52-52-76-76 56-56 76 76 52-52 24 24z"/></svg>
